X: 40448
T: Tom Rosser, The
R: jig
M: 6/8
K: Gmajor
BA|:GFE D2D|EFE DBA|D2G FGA|G2B BAG|
GFE D2D|EFE DBA|D2G FGA|1 G2G GBA:|2 G2G G2A:|
BGB AFA|GEG ~F2D|E2G FGA|G2B BAG|
ded B2B|efe dBA|D2G FGA|G2G G2A|
BGB AFA|GEG ~F2D|E2G FGA|G2B BAG|
gfe d2d|efe dBA|D2G FGA|G2G G||

